images_elementary_svg/cmd/sc_normalviewmode.svg

<svg viewBox="0 0 16 16" xmlns="http://www.w3.org/2000/svg" xmlns:xlink="http://www.w3.org/1999/xlink"><linearGradient id="a" gradientTransform="matrix(.59436 0 0 .5999 -19.265 -.033)" gradientUnits="userSpaceOnUse" x1="25.132" x2="25.132" y1="15.5" y2="48.396"><stop offset="0" stop-color="#fafafa"/><stop offset="1" stop-color="#e2e1de"/></linearGradient><rect fill="url(#a)" height="10" rx=".424" ry=".491" width="14" x="1" y="3"/><path d="m.5 2a.5.5 0 0 0 -.5.5v11a.5.5 0 0 0 .5.5h15a.5.5 0 0 0 .5-.5v-11a.5.5 0 0 0 -.5-.5zm.498.998h14.004v10.004h-14.004zm4.002.002v2h-4v1h4v3h-4v1h4v3h1v-3h4v3h1v-3h4v-1h-4v-3h4v-1h-4v-2h-1v2h-4v-2zm1 3h4v3h-4z" fill="#030303" opacity=".32"/><path d="m.5 2a.5.5 0 0 0 -.5.5v3.5h.998v-3.002h14.004v3.002h.998v-3.5a.5.5 0 0 0 -.5-.5zm4.5 1v2h-4v1h14v-1h-4v-2h-1v2h-4v-2z" fill="#b5b5b5" opacity=".4"/></svg>

<svg xmlns="http://www.w3.org/2000/svg" viewBox="0 0 16 16"><defs><linearGradient id="b" gradientTransform="matrix(.59436 0 0 .5999 -19.265 -.033)" gradientUnits="userSpaceOnUse" x1="25.132" x2="25.132" y1="15.5" y2="48.396"><stop offset="0" stop-color="#fafafa"/><stop offset="1" stop-color="#e2e1de"/></linearGradient><linearGradient id="a"><stop offset="0" stop-color="#fff"/><stop offset=".5" stop-color="#fff" stop-opacity=".235"/><stop offset=".951" stop-color="#fff" stop-opacity=".157"/><stop offset="1" stop-color="#fff" stop-opacity=".392"/></linearGradient></defs><rect height="10" rx=".424" ry=".491" width="14" x="1" y="3" fill="url(#b)"/><path fill="#030303" d="M.5 2a.5.5 0 0 0-.5.5v11a.5.5 0 0 0 .5.5h15a.5.5 0 0 0 .5-.5v-11a.5.5 0 0 0-.5-.5zm.498.998h14.004v10.004H.998zM5 3v2H1v1h4v3H1v1h4v3h1v-3h4v3h1v-3h4V9h-4V6h4V5h-4V3h-1v2H6V3zm1 3h4v3H6z" opacity=".32"/><path d="M.5 2a.5.5 0 0 0-.5.5V6h.998V2.998h14.004V6H16V2.5a.5.5 0 0 0-.5-.5H.5zM5 3v2H1v1h14V5h-4V3h-1v2H6V3H5z" fill="#b5b5b5" opacity=".4"/></svg>
